X: 38
T:Have at thy Coat old woman
M:C|
L:1/8
Q:180
K:GMix
Bc|d3B d3B|c2A4 Bc|d3c B3A|B2G4 ef|gfed edcB|c2A4 Bc|d3c B3A|B2 G4||

